icon-themes/breeze_svg/cmd/lc_graphicfilterpopart.svg

<svg viewBox="0 0 24 24" xmlns="http://www.w3.org/2000/svg"><path d="m12 4v8h8v-8z" fill="#fdbc4b"/><path d="m4 4v8h8v-8z" fill="#1d99f3"/><path d="m12 12v8h8v-8z" fill="#da4453"/><path d="m4 12v8h8v-8z" fill="#2ecc71"/><path d="m4 4v1h8v-1zm8 15v1h8v-1z" fill="#fff" fill-opacity=".4"/><path d="m12 4v1h8v-1zm-8 15v1h8v-1z" fill="#2e3132" fill-opacity=".3"/></svg>

<svg xmlns="http://www.w3.org/2000/svg" viewBox="0 0 24 24">
    <path
       style="fill:#fdbc4b"
       d="M 12 4 L 12 12 L 20 12 L 20 4 L 12 4 z " />
    <path
       style="fill:#1d99f3"
       d="M 4 4 L 4 12 L 12 12 L 12 4 L 4 4 z " />
    <path
       style="fill:#da4453"
       d="M 12 12 L 12 20 L 20 20 L 20 12 L 12 12 z " />
    <path
       style="fill:#2ecc71"
       d="M 4 12 L 4 20 L 12 20 L 12 12 L 4 12 z " />
    <path
       style="fill:#ffffff;fill-opacity:0.4"
       d="M 4 4 L 4 5 L 12 5 L 12 4 L 4 4 z M 12 19 L 12 20 L 20 20 L 20 19 L 12 19 z " />
    <path
       style="fill:#2e3132;fill-opacity:0.3"
       d="M 12 4 L 12 5 L 20 5 L 20 4 L 12 4 z M 4 19 L 4 20 L 12 20 L 12 19 L 4 19 z " />
</svg>
